X: 696
T: Zhangsheng xi yuanyang
%%abc-version 2.0
%%abcx-abcm2ps-target-version 5.9.1 (29 Sep 2008)
%%abc-creator hum2abc beta
%%abcx-conversion-date 2013/10/02 07:52:30
%%abc-edited-by Helmut Schaffrath
%%humdrum-veritas 857137591
%%humdrum-veritas-data 3168711685
%%continueall 1
%%barnumbers 0
L: 1/16
M: 2/4
K: Eb
B B B c e e d c [I:setbarnb 1]| 
B2 c B G2 F G | 
B B B c e e d c | 
B2 c B G2 F G | 
B GB4G B | 
c e c B B2 F2 | 
G B B F G B G F | 
E2> F2C4 | 
G F E2 F3 G | 
B2> G2 E2 G2 | 
F2 G2 F G F E | 
F EC4C E | 
F2> G2 E2 D C | 
c2> e2 c B A G | 
B2> c2B4 |]  



